X: 1
T:Feely Kearny's
R:Reel
C:Feely Kearny
S:Andy Dickson, Belfast (fiddle)
D:Private tape
N:As played
Z:Bernie Stocks
M:4/4
K:G
DE{A}GA B2(3.e.e.e | dBGB {AB}AGEG | DEGA B2(3.e.e.e | gedB {AB}AGEG |
DE{A}GA B2(3.e.e.e | dBGB {AB}AGEA | GABd gedB |1 {AB}AGAB G3E :|2 {AB}AGAB G3e ||
dB(3.B.B.B dBgB | dBGB AGEA | GB(3.B.B.B dB(3.B.B.B | gedB (3AGAdB |
efgf edBd | gedB {AB}AGEA | GABd gedB |1 {AB}AGAB G3e :|2 AGAB G4B4||
